X: 28
T: Praeludia organi op. 5 – Largo
C: Franciszek Walczyński
%%abc-version 2.0
%%abcx-abcm2ps-target-version 5.9.1 (29 Sep 2008)
%%abc-creator hum2abc beta
%%abcx-conversion-date 2021/10/04 07:38:39
%%abc-edited-by Andrzej Borzym
%%abc-edited-by Katarzyna Serwa
%%abcx-initial-encoding-date 2021-07-26
%%humdrum-veritas 2360290281
%%humdrum-veritas-data 2860420565
%%linebreak <none>
%%barnumbers 0
L: 1/4
M: C
N: Derived from pl-kozmzk--mzk-m-159--017_walczynski-franciszek--praeludia-organi-op-5-largo.krn
Q: "17. Largo."
%%staves {1 2}
V: 1 clef=treble
V: 2 clef=bass
K: G
[V:1] z4 & z4 | 
[V:2] z4 & zB,,B,.A, | 
[V:1] z4 & zB,B.A | 
[V:2] z4 & G,2F,2 | 
[V:1] z4 & G^GA=G | 
[V:2] z4 & E,D,C,^C, | 
[V:1] zDd!accent!c- & FD3 | 
[V:2] zF,G,A, & D,D,E,F, | 
[V:1] cB2A & D2^D2 | 
[V:2] G,2B,2 & G,2F,2 | 
[V:1] G^GAB & E4- | 
[V:2] B,2A,^G, & E,D,C,B,, | 
[V:1] dcBA & E4 | 
[V:2] A,4 & A,,2C,2 | 
[V:1] G2F2 & E3^D | 
[V:2] B,B,,B,.A, & B,,4- | 
[V:1] F!accent!E2^D & B,2A,2 | 
[V:2] G,2F,2 & B,,4 | 
[V:1] E4- & G,2^G,2 | 
[V:2] E,E,,E,D, & E,,4- | 
[V:1] E4- & G,A,F,A, | 
[V:2] =C,2A,,C, & E,,4- | 
[V:1] !fermata!E4 & ^G,4 |]  
[V:2] B,,4 & !fermata!E,,4 |]  


